symbols/web/minor_crash/materialsymbolsoutlined/minor_crash_grad200_24px.svg

<svg xmlns="http://www.w3.org/2000/svg" height="24" width="24"><path d="M8 6.85 4.55 3.4 6.4 1.55 9.85 5Zm8 0L14.15 5l3.45-3.45 1.85 1.85Zm-5.325-1.525v-5.65h2.65v5.65ZM3.75 24.35q-.475 0-.812-.312-.338-.313-.338-.788v-8.3l2.2-6.2q.175-.5.6-.8.425-.3.95-.3h11.3q.525 0 .95.3.425.3.6.8l2.2 6.2v8.3q0 .475-.338.788-.337.312-.812.312H19.1q-.475 0-.812-.312-.338-.313-.338-.788v-.9H6.05v.9q0 .475-.337.788-.338.312-.813.312Zm2-11.65h12.5l-1-2.8H6.75Zm-.9 7.4v-5.15 5.15Zm2.6-1q.65 0 1.125-.475T9.05 17.5q0-.65-.475-1.125T7.45 15.9q-.65 0-1.125.475T5.85 17.5q0 .65.475 1.125t1.125.475Zm9.1 0q.65 0 1.125-.475t.475-1.125q0-.65-.475-1.125T16.55 15.9q-.65 0-1.125.475T14.95 17.5q0 .65.475 1.125t1.125.475Zm-11.7 1h14.3v-5.15H4.85Z"/></svg>

<svg xmlns="http://www.w3.org/2000/svg" height="24" width="24"><path d="M8 6.85 4.55 3.4 6.4 1.55 9.85 5ZM16 6.85 14.15 5 17.6 1.55 19.45 3.4ZM10.675 5.325V-0.325H13.325V5.325ZM3.75 24.35Q3.275 24.35 2.938 24.038Q2.6 23.725 2.6 23.25V14.95L4.8 8.75Q4.975 8.25 5.4 7.95Q5.825 7.65 6.35 7.65H17.65Q18.175 7.65 18.6 7.95Q19.025 8.25 19.2 8.75L21.4 14.95V23.25Q21.4 23.725 21.062 24.038Q20.725 24.35 20.25 24.35H19.1Q18.625 24.35 18.288 24.038Q17.95 23.725 17.95 23.25V22.35H6.05V23.25Q6.05 23.725 5.713 24.038Q5.375 24.35 4.9 24.35ZM5.75 12.7H18.25L17.25 9.9H6.75ZM4.85 20.1V14.95V20.1ZM7.45 19.1Q8.1 19.1 8.575 18.625Q9.05 18.15 9.05 17.5Q9.05 16.85 8.575 16.375Q8.1 15.9 7.45 15.9Q6.8 15.9 6.325 16.375Q5.85 16.85 5.85 17.5Q5.85 18.15 6.325 18.625Q6.8 19.1 7.45 19.1ZM16.55 19.1Q17.2 19.1 17.675 18.625Q18.15 18.15 18.15 17.5Q18.15 16.85 17.675 16.375Q17.2 15.9 16.55 15.9Q15.9 15.9 15.425 16.375Q14.95 16.85 14.95 17.5Q14.95 18.15 15.425 18.625Q15.9 19.1 16.55 19.1ZM4.85 20.1H19.15V14.95H4.85Z"/></svg>
